img/icons/social-telegram-icon.svg

<svg xmlns="http://www.w3.org/2000/svg" version="1.1" xmlns:xlink="http://www.w3.org/1999/xlink" xmlns:svgjs="http://svgjs.com/svgjs" width="512" height="512" x="0" y="0" viewBox="0 0 152 152" style="enable-background:new 0 0 512 512" xml:space="preserve" class=""><g><g xmlns="http://www.w3.org/2000/svg" id="Layer_2" data-name="Layer 2"><g id="Color"><g id="_38.Messenger" data-name="38.Messenger"><path d="m97.71 65.6-14.71 8.03a1.61 1.61 0 0 1 -2-.31l-8.55-9.07a1.28 1.28 0 0 0 -1.87 0l-17.71 18.75a.58.58 0 0 0 .69.9l15-8.08a1.62 1.62 0 0 1 1.93.3l8.51 8.94a1.28 1.28 0 0 0 1.86 0l17.54-18.56a.57.57 0 0 0 -.69-.9z" fill="#8993a4" data-original="#000000" class=""></path><path d="m76 0a76 76 0 1 0 76 76 76 76 0 0 0 -76-76zm0 110.19a42.72 42.72 0 0 1 -11.06-1.44l-12.49 7.09a.93.93 0 0 1 -1.39-.79l-.16-13.05a36.05 36.05 0 0 1 -14.9-28.89c0-20.48 17.91-37.11 40-37.11s40 16.6 40 37.08-17.91 37.11-40 37.11z" fill="#8993a4" data-original="#000000" class=""></path></g></g></g></g></svg>

<svg xmlns="http://www.w3.org/2000/svg" width="512" height="512" viewBox="0 0 152 152"><g data-name="Layer 2"><g data-name="38.Messenger" xmlns="http://www.w3.org/2000/svg" fill="#8993a4"><path d="M97.71 65.6L83 73.63a1.61 1.61 0 01-2-.31l-8.55-9.07a1.28 1.28 0 00-1.87 0L52.87 83a.58.58 0 00.69.9l15-8.08a1.62 1.62 0 011.93.3L79 85.06a1.28 1.28 0 001.86 0L98.4 66.5a.57.57 0 00-.69-.9z" data-original="#000000"/><path d="M76 0a76 76 0 1076 76A76 76 0 0076 0zm0 110.19a42.72 42.72 0 01-11.06-1.44l-12.49 7.09a.93.93 0 01-1.39-.79L50.9 102A36.05 36.05 0 0136 73.11C36 52.63 53.91 36 76 36s40 16.6 40 37.08-17.91 37.11-40 37.11z" data-original="#000000"/></g></g></svg>
